X: 26235
T: Meelick Team, The
R: jig
M: 6/8
K: Edorian
A|B2E dBA|BAG EDB,|DEG Eed|BAG ABd|
e2e dBA|BAG EDB,|DEG Eed|BAG E3||
Bef gfe|Beg fed|Beg beg|fed e2f|
gfg edb|AFD EFA|d2d fed|BAF E3||

